X: 2
%%etbk:tnset id:1,pos:2,rep:3
%%etbk:site1 http://www.thesession.org/tunes/display/1318
T: Lough Mountain
Z: Piano Box Version by Martin Fleischmann (www.boxplayer.ch)
M: 4/4
L: 1/8
R: Reel
K: Edor
!5!B3!1!E !2!F!1!E!2!F!4!A|!2!B2!5!e!3!c !4!d!2!B!1!A!2!F|!4!A3!3!G !2!F!1!D!2!F!3!A|!5!d!3!f!2!e!1!d !2!B!1!A!2!F!4!A|
!5!B3E FEF!4!A|!2!Bdc!5!e dB!1!A!2!F|!1!A!2!B!3!d!4!e !5!f!1!A!3!d!4!e|!4!e!3!d!2!B!1!A !2!B!1!E~E2:|
|:!3!~e3d !1!B!2!A!1!B!2!d|!3!e!5!g!4!f!2!d ed!1!B!2!c|!3!~d3!2!B !1!AA!2!F!1!A|!3!d!5!fed !2!B!1!A (3!2!B!3!c!4!d|
!5!e2!3!ed BABd|egfd edBc|!3!~d3c d2!5!fe|!3!d!2!B!1!A!2!F !5!B!1!EE2:|

